X:8289
T:Joys of Wedlock Jig
M:6/8
L:1/8
K:G
D|GAG GBd|gfe d2 c|Bdg dBG|FAA A2 D|!
GAG GBd|gfe d2 c|BdB cAF|AGF G2:|!
|:c|Bdg dBG|Bdg d2 c|Bdg dBG|FAA A2 c|!
Bdd def|gfe fdc|BdB cAF|AGF G2:|!
